X:1205
T: Rusty Boat
S: B.Breathnach:"Ceol Rince na hEireann" IV/126 (gan ainm)
Z: B.Black
L: 1/8
M: 4/4
R: reel
K: D
d2 fd cecA|ddfd (3fga fe|d2 fd cecA|Bdce dD D2 :|
AFFA BGGB|AFdA BFFB|AFFA GEEG|AFdF ADDB|
AFFA BGGB|AFdA BFFB|AFFA GEEG|Aaeg fdec ||
